X:2
T:I Should Care
C:Stordahl, Weston & Cahn
L:1/4
M:C
I:linebreak $
K:C
"Gbø" c3 B "B7" x4|"E7" B4 "A7" x4|"D7" (3z A B"G7" (3c B A |"Co" B"C" B3 |"E7" _B3 E |"A7" A4 |$
"Dm" (3z E F"Em" (3G D E |"Fm" F"Bb7" F3 |"C" (3E F E F E |"Bb7" G"E7" F2 E ||1$
"Gm" (3E F E"C7" G F |"F" E4 |"Bb7" (3D E D"E7" F E |"Am" D"Am" C3 |"Am" (3D E C"D7" D3/2 D/ |
"Dm" (3A B G"G7" A B :|2$"Am" B ^G2 A |"Gbø" d3 _d "Ebo" x4|"Dm" c3 A |"G7" B3 c/d/ |"C" c4- |
c4 |]

